X:1     %Music
T:Avenging and Bright
B:Singing Together, Spring 1972, BBC Publications
F:http://www.folkinfo.org/songs
M:3/4     %Meter
L:1/8     %
K:C
E2 |A2 (AB) (cA) |B2 e3 d |c2 A2 A2 | G2 E2
w:A-veng-ing_ and_ bright fall the swift sword of  E-rin 
 E2 |A2 (AB) (cA) |B2 e3 d |c2 A2 B2 | A4
w:On him who_ the_ brave sons of Us-na be-trayed; 
 B2 |c2 (cd) (ec) |B2 G2 E2 |F2 (FA) (GF) | E2 C2 
w:For ev-'ry_ fond_ eye he hath wak-ened_ a_ tear in,
G2 |c2 (cd) (ec) |B2 G2 E2 |(FE) (Dc) (B3/2A/) | A4 z2 |]
w: A drop from_ his_ heart wounds shall weep_ o'er_ her_ blade 